X:17
T: Édesanyám, mért szültél a világra
M:4/4
L:1/4
K:F
d/c/c/c/ c/c/f/f/ | e<d c>z |
d/d/d/d/ A/A/c/B/ | A G F>z |
c<c dd | c/B/ A/G/ | AFG>z |
C/C/F/F/ _E/_E/G/G/ | D<D D>z |
W: Édesanyám mért szültél a világra,
W: Kilenc fontos ágyúgolyó számára?
W: Kilenc fontos ágyúgolyó eltalál,
W: Azt se mondom, voltál-e édesanyám.
W: 
W: Édesanyám, hol van az az édes té',
W: Amelyikkel katonának neveltél?
W: Adtad volna a te kicsi lányodnak
W: Ne neveltél volna fel katonának.
W: 
W: Édesanyám kiülött a kapuba,
W: Úgy sirassa, hogy a fia katona.
W: Édesanyám, ne sirasson engemet.
W: Haza jövök három évre, ha lehet.
